public/icons/blue-target.svg

<svg width="56" height="56" viewBox="0 0 56 56" fill="none" xmlns="http://www.w3.org/2000/svg">
<rect width="56" height="56" rx="28" fill="#1574E5"/>
<path d="M37 18C37 17.4477 36.5523 17 36 17C35.4477 17 35 17.4477 35 18V19.5858L28.4367 26.1491C28.2946 25.7699 27.9288 25.5 27.5 25.5C26.9477 25.5 26.5 25.9477 26.5 26.5V28.5C26.5 29.0523 26.9477 29.5 27.5 29.5H29.5C30.0523 29.5 30.5 29.0523 30.5 28.5C30.5 28.0712 30.2301 27.7054 29.8509 27.5633L36.4142 21H38C38.5523 21 39 20.5523 39 20C39 19.4477 38.5523 19 38 19H37V18Z" fill="#F9FAFB"/>
<path d="M28 18C30.0382 18 31.9339 18.6098 33.5148 19.6568L31.3302 21.8414C30.3399 21.3047 29.2055 21 28 21C24.134 21 21 24.134 21 28C21 31.866 24.134 35 28 35C31.866 35 35 31.866 35 28C35 26.7945 34.6953 25.6601 34.1586 24.6698L36.3432 22.4852C37.3902 24.0661 38 25.9618 38 28C38 33.5228 33.5228 38 28 38C22.4772 38 18 33.5228 18 28C18 22.4772 22.4772 18 28 18Z" fill="#F9FAFB"/>
<path d="M28 23C28.6449 23 29.2612 23.1221 29.8272 23.3444L28.4383 24.7333C28.1585 24.5844 27.8391 24.5 27.5 24.5C26.3954 24.5 25.5 25.3954 25.5 26.5V28.5C25.5 29.6046 26.3954 30.5 27.5 30.5H29.5C30.6046 30.5 31.5 29.6046 31.5 28.5C31.5 28.1609 31.4156 27.8415 31.2667 27.5617L32.6556 26.1728C32.8779 26.7388 33 27.3551 33 28C33 30.7614 30.7614 33 28 33C25.2386 33 23 30.7614 23 28C23 25.2386 25.2386 23 28 23Z" fill="#F9FAFB"/>
</svg>

<svg xmlns="http://www.w3.org/2000/svg" width="56" height="56" fill="none"><rect width="56" height="56" fill="#1574E5" rx="28"/><path fill="#F9FAFB" d="M37 18a1 1 0 1 0-2 0v1.586l-6.563 6.563a1 1 0 0 0-1.937.351v2a1 1 0 0 0 1 1h2a1 1 0 0 0 .35-1.937L36.415 21H38a1 1 0 1 0 0-2h-1z"/><path fill="#F9FAFB" d="M28 18c2.038 0 3.934.61 5.515 1.657L31.33 21.84a7 7 0 1 0 2.828 2.828l2.185-2.184A9.95 9.95 0 0 1 38 28c0 5.523-4.477 10-10 10s-10-4.477-10-10 4.477-10 10-10"/><path fill="#F9FAFB" d="M28 23c.645 0 1.261.122 1.827.344l-1.389 1.39A2 2 0 0 0 25.5 26.5v1.999a2 2 0 0 0 2 2h2a2 2 0 0 0 1.767-2.938l1.389-1.39A5 5 0 1 1 28 23"/></svg>
